X: 15666
T: Gold Ring, The
R: jig
M: 6/8
K: Gmajor
d|cAG GFG|cAG G2d|cAG GFG|cAG F2d|
cAG GFG|cAG A2G|FAd fed|cAF G2:|
|:d|cAd cAd|cAG G2d|cAd cAd|cAG F2d|
cAd cAd|cAG A2G|FAd fed|1 cAF G2:|2 cAF G||
|:Bd|gdg gdc|BGG GBd|f2f fed|cAG FGA|
g3gdc|BGG G2d|f/g/ag fed|cAF G:|
|:Bd|gdd fdd|gdd fdd|gdd fed|cAF GBd|
gdd fdd|gdd fdd|f/g/ag fed|cAF G:|
z|:A|B2G ABG|d2GG2A|B2G ABG|cAG FGA|
BAG AGF|GFD FGA||f/g/ag fed|cAF G2:|

